**kern	**kern
*part1	*part1
*staff2	*staff1
*clefF4	*clefG2
*k[f#]	*k[f#]
*G:	*G:
*M3/4	*M3/4
*^	*^
4B	4GG	4g	4d
=1	=1	=1	=1
4B	4G	2g	4d
8cL	4E	.	4e
8BJ	.	.	.
4A	4F#	4dd	4d
=2	=2	=2	=2
4G	4G	4.b	2d
4F#	4D	.	.
.	.	8a	.
4G	4E	4g	4B
=3	=3	=3	=3
!!linebreak:original
8cL	4C	4.g	8eL
8BJ	.	.	8d
4c	8BBL	.	8e
.	8AAJ	8a	8f#J
4d	4GG	4b	4g
=4	=4	=4	=4
2d	2D	2a	2f#
4d	4GG	4b	4g
=5	=5	=5	=5
4A	4FF#	2dd	4d
4B	4GG	.	4e
4c	4AA	4cc	4f#
=6	=6	=6	=6
!!linebreak:original
4d	4BB	4b	2g
4e	4C	2a	.
8dL	4D	.	4f#
8cJ	.	.	.
=7	=7	=7	=7
2B	2GG	2g	2d
4d	4GG	4b	4g
=8	=8	=8	=8
4d	4GG	4b	8gL
.	.	.	8f#J
4c	4AA	4cc	8eL
.	.	.	8f#J
8BL	4BB	4dd	4g
8AJ	.	.	.
=9	=9	=9	=9
!!linebreak:original
8BL	4.BB	4.dd	8gL
8cJ	.	.	8aJ
4d	.	.	8gL
.	8AA	8cc	8f#J
4d	4GG	4b	4g
=10	=10	=10	=10
2d	2D	2a	2f#
4B	[4E	4g	4e
=11	=11	=11	=11
4G	4E]	2b	4e
4B	4D	.	8f#L
.	.	.	8gJ
4e	4C	4cc	4a
=12	=12	=12	=12
!!pagebreak:original
2d	4.BB	2dd	4a
.	.	.	4.g
.	8C	.	.
4d	4D	4cc	.
.	.	.	8f#
=13	=13	=13	=13
2d	8GGL	2.b	2g
.	8AAJ	.	.
.	4BB	.	.
4d	4GG	.	4fn
=14	=14	=14	=14
2c	2C	2g	2e
4d	4GG	4b	4g
=15	=15	=15	=15
!!linebreak:original
8dL	4FF#	2dd	4.a
8cJ	.	.	.
4B	4GG	.	.
.	.	.	8g
4c	4AA	4cc	4f#
=16	=16	=16	=16
2d	4BB	2b	2g
.	4GG	.	.
8dL	4D	4a	[4f#
8cJ	.	.	.
=17	=17	=17	=17
4B	8EL	4.g	8f#L]
.	8D	.	8eJ
4c	8C	.	8eL
.	8BB	8a	8f#J
4d	8AA	4b	4g
.	8GGJ	.	.
=18	=18	=18	=18
!!linebreak:original
2d	2D	2a	2f#
4d	[4G	4b	4g
=19	=19	=19	=19
2d	4G]	2dd	2a
.	4F#	.	.
4e	[4E	4cc	8gL
.	.	.	8f#J
=20	=20	=20	=20
2e	8EL]	4b	2g
.	8DJ	.	.
.	4C	2a	.
8dL	4D	.	4f#
8cJ	.	.	.
=21	=21	=21	=21
!!linebreak:original
2B	2GG	2g	2d
4rc	4rEE	4raa	4rc
*v	*v	*	*
*	*v	*v
==	==
*-	*-
!!!system-decoration: {(s1,s2)}
